fountain.svg

<svg fill="currentColor" viewBox="0 0 24 24"><path d="M7.5 2C4.47 2 2 4.46 2 7.5V8h2v-.5A3.5 3.5 0 0 1 7.5 4c1.5 0 2.76.93 3.26 2.24Q10.175 6 9.5 6c-1.39 0-2.6.82-3.16 2l1.74 1c.21-.58.77-1 1.42-1A1.5 1.5 0 0 1 11 9.5V11h2V9.5A1.5 1.5 0 0 1 14.5 8c.66 0 1.21.42 1.42 1l1.74-1c-.56-1.18-1.76-2-3.16-2q-.675 0-1.26.24C13.74 4.93 15 4 16.5 4A3.5 3.5 0 0 1 20 7.5V8h2v-.5A5.5 5.5 0 0 0 16.5 2c-1.86 0-3.5.93-4.5 2.34C11 2.93 9.36 2 7.5 2M6 12v2h1.42c.5 1.15 1.43 2.07 2.58 2.57V19H2s.82 1.23 1.41 2.11c.37.56.99.89 1.66.89h13.86c.67 0 1.29-.33 1.66-.89L22 19h-8v-2.43c1.15-.5 2.08-1.42 2.58-2.57H18v-2z"/></svg>

<svg  viewBox="0 0 24 24" fill="currentColor"><path  d="M7.5,2C4.47,2 2,4.46 2,7.5V7.5L2,8H4V7.5A3.5,3.5 0 0,1 7.5,4C9,4 10.26,4.93 10.76,6.24C10.37,6.08 9.95,6 9.5,6C8.11,6 6.9,6.82 6.34,8L8.08,9C8.29,8.42 8.85,8 9.5,8A1.5,1.5 0 0,1 11,9.5V11H13V9.5A1.5,1.5 0 0,1 14.5,8C15.16,8 15.71,8.42 15.92,9L17.66,8C17.1,6.82 15.9,6 14.5,6C14.05,6 13.63,6.08 13.24,6.24C13.74,4.93 15,4 16.5,4A3.5,3.5 0 0,1 20,7.5V8H22V7.5H22A5.5,5.5 0 0,0 16.5,2C14.64,2 13,2.93 12,4.34C11,2.93 9.36,2 7.5,2M6,12V14H7.42C7.92,15.15 8.85,16.07 10,16.57C10,17.38 10,18.19 10,19H2C2,19 2.82,20.23 3.41,21.11C3.78,21.67 4.4,22 5.07,22H18.93C19.6,22 20.22,21.67 20.59,21.11L22,19H14C14,18.19 14,17.38 14,16.57C15.15,16.07 16.08,15.15 16.58,14H18V12H6Z"/></svg>
